icons/menu.svg

<svg xmlns="http://www.w3.org/2000/svg" width="24" height="24" fill="none"><path fill="#030c01" d="M4 6h16v2H4zm0 5h16v2H4zm0 5h16v2H4z"/></svg>

<svg width="24" height="24" viewBox="0 0 24 24" fill="none" xmlns="http://www.w3.org/2000/svg">
<path d="M4 6H20V8H4V6ZM4 11H20V13H4V11ZM4 16H20V18H4V16Z" fill="#030C01"/>
</svg>
